synths/sEOS.svg

<svg width="480" height="480" viewBox="0 0 480 480" fill="none" xmlns="http://www.w3.org/2000/svg"><circle cx="240" cy="240" r="240" fill="url(#paint0_linear)"/><path d="M413.332 74h-44.615c-26.479 0-49.238 10.625-68.278 31.874L246.427 172h98.441l16.957-20.643c3.287-3.762 7.334-5.647 12.149-5.647h86.795a236.19 236.19 0 00-3.128-7h-83.667c-6.927 0-12.865 2.828-17.42 8.042l-.07.08L341.559 165h-80.376l44.574-54.572C323.562 90.611 344.443 81 368.717 81h51.061a240.48 240.48 0 00-6.446-7zM66.667 406h45.017c26.479 0 49.239-10.732 68.278-32.205L233.888 308h-98.686l-16.626 20.303c-3.508 3.771-7.554 5.648-12.149 5.648H19.086a238.894 238.894 0 003.114 7h84.227c6.778 0 12.614-2.87 17.274-7.88l.151-.162L138.518 315H219.1l-44.464 54.252C156.819 389.299 135.94 399 111.684 399H60.221a240.688 240.688 0 006.446 7zm394.243-72.04h-86.936c-4.603 0-8.535-1.77-11.822-5.317L345.245 308h-98.397l53.918 65.795C319.585 395.268 342.238 406 368.717 406h44.615a239.704 239.704 0 006.446-7h-51.061c-24.257 0-45.021-9.701-62.611-29.732L261.634 315h80.296l14.942 18.244.145.156c4.535 4.895 10.294 7.56 16.957 7.56h83.821a239.708 239.708 0 003.115-7zM19.23 145.71h87.197c4.816 0 8.862 1.885 12.149 5.647L135.439 172h41.187l28.614-34.922-25.278-30.873C160.923 84.741 138.269 74 112.011 74H66.667a241.47 241.47 0 00-6.446 7h51.79c24.015 0 44.794 9.694 62.624 29.748l21.557 26.328L173.312 165H138.76l-14.836-18.161-.077-.087c-4.554-5.214-10.493-8.042-17.42-8.042H22.358a238.014 238.014 0 00-3.127 7z" fill="#00D1FF"/><path d="M128.424 256.488h47.328V273h-71.904v-68.16h71.232v16.512h-46.656v9.696h45.024v15.168h-45.024v10.272zm112.116 18.816c-9.344 0-17.504-1.472-24.48-4.416-6.976-3.008-12.352-7.232-16.128-12.672-3.776-5.504-5.664-11.936-5.664-19.296 0-7.36 1.888-13.76 5.664-19.2 3.776-5.504 9.152-9.728 16.128-12.672 6.976-3.008 15.136-4.512 24.48-4.512 9.344 0 17.472 1.504 24.384 4.512 6.976 2.944 12.352 7.168 16.128 12.672 3.776 5.44 5.664 11.84 5.664 19.2 0 7.36-1.888 13.792-5.664 19.296-3.776 5.44-9.152 9.664-16.128 12.672-6.912 2.944-15.04 4.416-24.384 4.416zm0-17.76c4.032 0 7.584-.768 10.656-2.304 3.072-1.536 5.44-3.712 7.104-6.528 1.664-2.816 2.496-6.08 2.496-9.792 0-5.632-1.856-10.144-5.568-13.536-3.648-3.392-8.544-5.088-14.688-5.088s-11.072 1.696-14.784 5.088c-3.712 3.392-5.568 7.904-5.568 13.536 0 3.712.832 6.976 2.496 9.792 1.728 2.752 4.128 4.928 7.2 6.528 3.072 1.536 6.624 2.304 10.656 2.304zm101.2 17.76c-8.832 0-17.248-1.312-25.248-3.936-7.936-2.688-14.016-6.048-18.24-10.08l15.84-13.824c3.584 3.2 7.936 5.856 13.056 7.968 5.12 2.048 10.464 3.072 16.032 3.072 9.984 0 14.976-1.824 14.976-5.472 0-1.28-.544-2.208-1.632-2.784-1.024-.64-2.976-1.12-5.856-1.44l-20.352-2.4c-8.768-1.088-15.264-3.328-19.488-6.72-4.16-3.456-6.24-8.448-6.24-14.976 0-4.608 1.472-8.576 4.416-11.904 3.008-3.328 7.36-5.856 13.056-7.584 5.696-1.792 12.544-2.688 20.544-2.688 7.744 0 15.008.864 21.792 2.592 6.784 1.664 12.704 4.256 17.76 7.776l-13.536 14.4c-2.88-2.496-6.784-4.512-11.712-6.048-4.928-1.536-10.144-2.304-15.648-2.304-4.096 0-7.2.416-9.312 1.248-2.112.768-3.168 1.92-3.168 3.456 0 1.344.608 2.336 1.824 2.976 1.28.64 3.616 1.152 7.008 1.536l17.568 1.728c6.656.704 11.968 1.856 15.936 3.456 4.032 1.536 6.976 3.712 8.832 6.528 1.856 2.816 2.784 6.4 2.784 10.752 0 7.872-3.616 13.952-10.848 18.24-7.168 4.288-17.216 6.432-30.144 6.432z" fill="#fff"/><defs><linearGradient id="paint0_linear" x1="240" y1="0" x2="240" y2="701.818" gradientUnits="userSpaceOnUse"><stop stop-color="#08021E"/><stop offset="1" stop-color="#1F0777"/></linearGradient></defs></svg>

<svg width="480" height="480" viewBox="0 0 480 480" fill="none" xmlns="http://www.w3.org/2000/svg">
<circle cx="240" cy="240" r="240" fill="url(#paint0_linear)"/>
<mask id="mask0" mask-type="alpha" maskUnits="userSpaceOnUse" x="0" y="0" width="480" height="480">
<circle cx="240" cy="240" r="240" fill="url(#paint1_linear)"/>
</mask>
<g mask="url(#mask0)">
<path fill-rule="evenodd" clip-rule="evenodd" d="M123.924 146.839L138.76 165H173.312L196.192 137.076L174.636 110.748C156.805 90.694 136.027 81 112.011 81H12V138.71H106.428C113.355 138.71 119.293 141.538 123.848 146.752L123.924 146.839ZM179.963 106.205L205.24 137.078L176.626 172H135.439L118.576 151.357C115.289 147.595 111.243 145.71 106.428 145.71H7.95094C7.07626 145.71 6.36061 145.433 5.82167 144.879C5.27389 144.334 5 143.717 5 143.056V76.6539C5 75.9927 5.27389 75.385 5.82167 74.831C6.36061 74.277 7.07626 74 7.95094 74H112.011C138.27 74 160.923 84.7408 179.963 106.205ZM123.852 332.909L123.701 333.071C119.042 338.081 113.205 340.951 106.428 340.951H12.3269V399H111.685C135.94 399 156.82 389.299 174.636 369.252L219.1 315H138.518L123.852 332.909ZM135.203 308H233.888L179.963 373.795C160.923 395.268 138.164 406 111.685 406H7.95094C7.07626 406 6.41363 405.723 5.9807 405.169C5.53894 404.615 5.3269 403.9 5.3269 403.007V336.605C5.3269 335.943 5.53894 335.336 5.9807 334.782C6.41363 334.228 7.07626 333.951 7.95094 333.951H106.428C111.022 333.951 115.068 332.074 118.576 328.303L135.203 308ZM362.153 328.643C365.439 332.19 369.371 333.96 373.974 333.96H472.451C473.325 333.96 473.979 334.237 474.421 334.791C474.854 335.345 475.075 336.069 475.075 336.944V403.346C475.075 404.007 474.854 404.624 474.421 405.169C473.979 405.723 473.325 406 472.451 406H368.717C342.238 406 319.585 395.268 300.766 373.795L246.848 308H345.245L362.153 328.643ZM341.93 315H261.635L306.106 369.268C323.696 389.299 344.46 399 368.717 399H468.075V340.96H373.974C367.312 340.96 361.552 338.295 357.018 333.4L356.872 333.244L341.93 315ZM361.826 151.357C365.112 147.595 369.159 145.71 373.974 145.71H472.451C473.325 145.71 473.979 145.433 474.421 144.879C474.854 144.334 475.075 143.717 475.075 143.056V76.6539C475.075 75.7693 474.854 75.108 474.421 74.6612C473.979 74.2234 473.325 74 472.451 74H368.717C342.238 74 319.479 84.6246 300.439 105.874L246.427 172H344.868L361.826 151.357ZM341.559 165L356.484 146.832L356.554 146.752C361.109 141.538 367.047 138.71 373.974 138.71H468.075V81H368.717C344.443 81 323.562 90.6107 305.758 110.428L261.183 165H341.559Z" fill="#00D1FF"/>
</g>
<path d="M128.424 256.488H175.752V273H103.848V204.84H175.08V221.352H128.424V231.048H173.448V246.216H128.424V256.488Z" fill="white"/>
<path d="M240.54 275.304C231.196 275.304 223.036 273.832 216.06 270.888C209.084 267.88 203.708 263.656 199.932 258.216C196.156 252.712 194.268 246.28 194.268 238.92C194.268 231.56 196.156 225.16 199.932 219.72C203.708 214.216 209.084 209.992 216.06 207.048C223.036 204.04 231.196 202.536 240.54 202.536C249.884 202.536 258.012 204.04 264.924 207.048C271.9 209.992 277.276 214.216 281.052 219.72C284.828 225.16 286.716 231.56 286.716 238.92C286.716 246.28 284.828 252.712 281.052 258.216C277.276 263.656 271.9 267.88 264.924 270.888C258.012 273.832 249.884 275.304 240.54 275.304ZM240.54 257.544C244.572 257.544 248.124 256.776 251.196 255.24C254.268 253.704 256.636 251.528 258.3 248.712C259.964 245.896 260.796 242.632 260.796 238.92C260.796 233.288 258.94 228.776 255.228 225.384C251.58 221.992 246.684 220.296 240.54 220.296C234.396 220.296 229.468 221.992 225.756 225.384C222.044 228.776 220.188 233.288 220.188 238.92C220.188 242.632 221.02 245.896 222.684 248.712C224.412 251.464 226.812 253.64 229.884 255.24C232.956 256.776 236.508 257.544 240.54 257.544Z" fill="white"/>
<path d="M341.74 275.304C332.908 275.304 324.492 273.992 316.492 271.368C308.556 268.68 302.476 265.32 298.252 261.288L314.092 247.464C317.676 250.664 322.028 253.32 327.148 255.432C332.268 257.48 337.612 258.504 343.18 258.504C353.164 258.504 358.156 256.68 358.156 253.032C358.156 251.752 357.612 250.824 356.524 250.248C355.5 249.608 353.548 249.128 350.668 248.808L330.316 246.408C321.548 245.32 315.052 243.08 310.828 239.688C306.668 236.232 304.588 231.24 304.588 224.712C304.588 220.104 306.06 216.136 309.004 212.808C312.012 209.48 316.364 206.952 322.06 205.224C327.756 203.432 334.604 202.536 342.604 202.536C350.348 202.536 357.612 203.4 364.396 205.128C371.18 206.792 377.1 209.384 382.156 212.904L368.62 227.304C365.74 224.808 361.836 222.792 356.908 221.256C351.98 219.72 346.764 218.952 341.26 218.952C337.164 218.952 334.06 219.368 331.948 220.2C329.836 220.968 328.78 222.12 328.78 223.656C328.78 225 329.388 225.992 330.604 226.632C331.884 227.272 334.22 227.784 337.612 228.168L355.18 229.896C361.836 230.6 367.148 231.752 371.116 233.352C375.148 234.888 378.092 237.064 379.948 239.88C381.804 242.696 382.732 246.28 382.732 250.632C382.732 258.504 379.116 264.584 371.884 268.872C364.716 273.16 354.668 275.304 341.74 275.304Z" fill="white"/>
<defs>
<linearGradient id="paint0_linear" x1="240" y1="0" x2="240" y2="701.818" gradientUnits="userSpaceOnUse">
<stop stop-color="#08021E"/>
<stop offset="1" stop-color="#1F0777"/>
</linearGradient>
<linearGradient id="paint1_linear" x1="240" y1="0" x2="240" y2="701.818" gradientUnits="userSpaceOnUse">
<stop stop-color="#08021E"/>
<stop offset="1" stop-color="#1F0777"/>
</linearGradient>
</defs>
</svg>
